flaticon/education/desk.svg

<svg xmlns="http://www.w3.org/2000/svg" width="32" height="32" viewBox="0 0 24 24">
    <path d="M 23.601562 9.738281 L 23.199219 9.738281 L 23.199219 9.339844 C 23.199219 8.699219 22.679688 8.140625 22 8.140625 L 21.769531 8.140625 L 23.109375 4.789062 C 23.246094 4.628906 23.269531 4.410156 23.121094 4.261719 L 20.617188 1.503906 C 20.546875 1.390625 20.460938 1.28125 20.359375 1.179688 C 20 0.859375 19.558594 0.660156 19.078125 0.660156 C 18.601562 0.660156 18.121094 0.820312 17.800781 1.179688 L 17.078125 1.898438 C 16.921875 2.058594 16.921875 2.300781 17.078125 2.460938 L 19.078125 4.460938 C 19.160156 4.539062 19.238281 4.582031 19.359375 4.582031 C 19.441406 4.582031 19.558594 4.539062 19.640625 4.460938 L 20.359375 3.738281 C 20.570312 3.503906 20.726562 3.234375 20.8125 2.9375 L 22.316406 4.59375 L 20.894531 8.140625 L 20.398438 8.140625 C 19.761719 8.140625 19.199219 8.660156 19.199219 9.339844 L 19.199219 9.738281 L 15.972656 9.738281 L 15.441406 2.980469 C 15.359375 2.339844 15 1.738281 14.398438 1.339844 C 14 1.101562 13.519531 0.941406 12.960938 0.941406 L 11.238281 0.941406 C 10.601562 0.941406 10.039062 1.140625 9.601562 1.460938 C 9.039062 1.859375 8.71875 2.421875 8.679688 2.980469 L 8.035156 9.738281 L 6.152344 9.738281 C 6.050781 9.632812 6 9.5 6 9.339844 C 6 9.210938 6.050781 9.058594 6.15625 8.941406 L 6.800781 8.941406 C 6.960938 8.941406 7.121094 8.820312 7.160156 8.660156 C 7.199219 8.5 7.160156 8.339844 7.039062 8.21875 C 6.878906 8.101562 6.800781 7.941406 6.800781 7.738281 C 6.800781 7.578125 6.878906 7.378906 7.039062 7.261719 C 7.160156 7.140625 7.199219 6.980469 7.160156 6.820312 C 7.121094 6.660156 6.960938 6.539062 6.800781 6.539062 L 2 6.539062 C 1.320312 6.539062 0.800781 7.058594 0.800781 7.738281 C 0.800781 7.898438 0.828125 8.046875 0.878906 8.179688 C 0.363281 8.316406 0 8.773438 0 9.339844 C 0 9.523438 0.0390625 9.699219 0.109375 9.851562 C 0.0390625 9.921875 0 10.019531 0 10.140625 L 0 11.738281 C 0 11.980469 0.160156 12.140625 0.398438 12.140625 L 0.800781 12.140625 L 0.800781 22.941406 C 0.800781 23.179688 0.960938 23.339844 1.199219 23.339844 L 2.800781 23.339844 C 3.039062 23.339844 3.199219 23.179688 3.199219 22.941406 L 3.199219 20.941406 L 11.480469 20.941406 C 11.457031 20.976562 11.433594 21.015625 11.398438 21.058594 C 11.160156 21.300781 10.519531 21.738281 8.800781 21.738281 C 8.480469 21.738281 6.917969 21.699219 6.28125 22.300781 C 6.078125 22.460938 6 22.699219 6 22.941406 C 6 23.179688 6.160156 23.339844 6.398438 23.339844 C 6.640625 23.339844 6.800781 23.179688 6.800781 22.941406 C 6.800781 22.941406 6.800781 22.898438 6.839844 22.859375 C 7.121094 22.578125 8.160156 22.5 8.800781 22.539062 C 10.359375 22.539062 11.441406 22.21875 12 21.578125 C 12.558594 22.21875 13.640625 22.539062 15.199219 22.539062 C 15.839844 22.5 16.878906 22.578125 17.160156 22.859375 C 17.199219 22.898438 17.199219 22.941406 17.199219 22.941406 C 17.199219 23.179688 17.359375 23.339844 17.601562 23.339844 C 17.839844 23.339844 18 23.179688 18 22.980469 C 18 22.738281 17.917969 22.5 17.71875 22.339844 C 17.078125 21.738281 15.480469 21.78125 15.199219 21.78125 C 13.480469 21.78125 12.839844 21.339844 12.601562 21.101562 C 12.546875 21.046875 12.503906 20.992188 12.476562 20.941406 L 20.800781 20.941406 L 20.800781 22.941406 C 20.800781 23.179688 20.960938 23.339844 21.199219 23.339844 L 22.800781 23.339844 C 23.039062 23.339844 23.199219 23.179688 23.199219 22.941406 L 23.199219 12.140625 L 23.601562 12.140625 C 23.839844 12.140625 24 11.980469 24 11.738281 L 24 10.140625 C 24 9.898438 23.839844 9.738281 23.601562 9.738281 Z M 20.039062 2.421875 C 20.039062 2.699219 19.960938 2.941406 19.761719 3.140625 L 19.320312 3.578125 L 17.921875 2.179688 L 18.359375 1.699219 C 18.691406 1.367188 19.296875 1.34375 19.671875 1.625 C 19.691406 1.675781 19.71875 1.730469 19.761719 1.78125 L 19.933594 1.96875 C 20 2.105469 20.039062 2.257812 20.039062 2.421875 Z M 20 9.339844 C 20 9.140625 20.160156 8.941406 20.398438 8.941406 L 22 8.941406 C 22.199219 8.941406 22.398438 9.101562 22.398438 9.339844 L 22.398438 9.738281 L 20 9.738281 Z M 9.441406 3.019531 C 9.480469 2.699219 9.679688 2.339844 10.039062 2.101562 C 10.441406 1.820312 10.921875 1.738281 11.238281 1.738281 L 12.960938 1.738281 C 13.359375 1.738281 13.679688 1.820312 13.960938 2.019531 C 14.359375 2.261719 14.601562 2.660156 14.640625 3.058594 L 15.160156 9.738281 L 8.839844 9.738281 Z M 2 7.339844 L 6.078125 7.339844 C 6.039062 7.460938 6 7.621094 6 7.738281 C 6 7.859375 6 8.019531 6.039062 8.140625 L 2 8.140625 C 1.761719 8.140625 1.601562 7.980469 1.601562 7.738281 C 1.601562 7.5 1.761719 7.339844 2 7.339844 Z M 1.199219 8.941406 L 5.28125 8.941406 C 5.238281 9.058594 5.199219 9.21875 5.199219 9.339844 C 5.199219 9.460938 5.199219 9.621094 5.238281 9.738281 L 1.199219 9.738281 C 0.960938 9.738281 0.800781 9.578125 0.800781 9.339844 C 0.800781 9.101562 0.960938 8.941406 1.199219 8.941406 Z M 2.398438 22.539062 L 1.601562 22.539062 L 1.601562 20.941406 L 2.398438 20.941406 Z M 22.398438 22.539062 L 21.601562 22.539062 L 21.601562 20.941406 L 22.398438 20.941406 Z M 22.398438 20.140625 L 1.601562 20.140625 L 1.601562 12.140625 L 22.398438 12.140625 Z M 23.199219 11.339844 L 0.800781 11.339844 L 0.800781 10.539062 L 23.199219 10.539062 Z M 23.199219 11.339844"/>
    <path d="M 5 18.941406 L 19 18.941406 C 20 18.941406 20.800781 18.140625 20.839844 17.179688 L 20.839844 15.140625 C 20.839844 14.140625 20.039062 13.339844 19.039062 13.339844 L 5 13.339844 C 4 13.339844 3.199219 14.140625 3.199219 15.140625 L 3.199219 17.179688 C 3.199219 18.140625 4 18.941406 5 18.941406 Z M 4 15.140625 C 4 14.578125 4.441406 14.140625 5 14.140625 L 19.039062 14.140625 C 19.601562 14.140625 20.039062 14.578125 20.039062 15.140625 L 20.039062 17.179688 C 20.039062 17.738281 19.601562 18.179688 19.039062 18.179688 L 5 18.179688 C 4.441406 18.179688 4 17.738281 4 17.179688 Z M 4 15.140625"/>
</svg>

<svg xmlns="http://www.w3.org/2000/svg" width="32" height="32" viewBox="0 0 24 24">
    <path d="M23.602 9.738h-.403V9.34c0-.64-.52-1.2-1.199-1.2h-.23l1.34-3.35c.136-.161.16-.38.011-.528l-2.504-2.758a1.807 1.807 0 0 0-.258-.324C20 .86 19.56.66 19.08.66c-.477 0-.958.16-1.278.52l-.723.718a.396.396 0 0 0 0 .563l2 2c.082.078.16.121.281.121.082 0 .2-.043.282-.121l.718-.723c.211-.234.368-.504.453-.8l1.504 1.656-1.421 3.547h-.497c-.636 0-1.199.52-1.199 1.199v.398h-3.226L15.44 2.98a2.321 2.321 0 0 0-1.043-1.64A2.769 2.769 0 0 0 12.961.94h-1.723c-.636 0-1.199.2-1.636.52-.563.398-.883.96-.922 1.52l-.645 6.757H6.152A.551.551 0 0 1 6 9.34c0-.13.05-.281.156-.399h.645c.16 0 .32-.12.36-.28.038-.161 0-.321-.122-.442a.562.562 0 0 1-.238-.48c0-.16.078-.36.238-.477a.455.455 0 0 0 .121-.442.383.383 0 0 0-.36-.28H2c-.68 0-1.2.519-1.2 1.198 0 .16.028.309.079.442A1.179 1.179 0 0 0 0 9.34c0 .183.04.36.11.512a.395.395 0 0 0-.11.289v1.597c0 .242.16.403.398.403h.403v10.8c0 .239.16.399.398.399h1.602c.238 0 .398-.16.398-.399v-2h8.281c-.023.036-.046.075-.082.118-.238.242-.878.68-2.597.68-.32 0-1.883-.04-2.52.562-.203.16-.281.398-.281.64 0 .239.16.399.398.399.243 0 .403-.16.403-.399 0 0 0-.043.039-.082.281-.28 1.32-.359 1.96-.32 1.56 0 2.641-.32 3.2-.96.559.64 1.64.96 3.2.96.64-.039 1.679.04 1.96.32.04.04.04.082.04.082 0 .239.16.399.402.399.238 0 .398-.16.398-.36 0-.242-.082-.48-.281-.64-.64-.602-2.239-.559-2.52-.559-1.719 0-2.36-.441-2.597-.68a.718.718 0 0 1-.125-.16H20.8v2c0 .239.16.399.398.399h1.602c.238 0 .398-.16.398-.399v-10.8h.403c.238 0 .398-.16.398-.403v-1.597c0-.243-.16-.403-.398-.403zm-3.563-7.316c0 .277-.078.52-.277.719l-.442.437-1.398-1.398.437-.48c.332-.333.938-.356 1.313-.075.02.05.047.105.09.156l.172.188c.066.136.105.289.105.453zM20 9.34a.4.4 0 0 1 .398-.399H22a.4.4 0 0 1 .398.399v.398H20zM9.441 3.02c.04-.32.239-.68.598-.918a2.169 2.169 0 0 1 1.2-.364h1.722c.398 0 .719.082 1 .282.398.242.64.64.68 1.039l.52 6.68H8.84zM2 7.34h4.078a1.408 1.408 0 0 0-.04.8H2.001c-.238 0-.398-.16-.398-.402 0-.238.16-.398.398-.398zM1.2 8.94H5.28a1.368 1.368 0 0 0-.043.797H1.2c-.238 0-.398-.16-.398-.398 0-.238.16-.399.398-.399zM2.397 22.54h-.796v-1.598h.796zm20 0h-.796v-1.598h.796zm0-2.398H1.602v-8h20.796zm.801-8.801H.801v-.8h22.398zm0 0"/>
    <path d="M5 18.941h14c1 0 1.8-.8 1.84-1.761v-2.04c0-1-.8-1.8-1.8-1.8H5c-1 0-1.8.8-1.8 1.8v2.04c0 .96.8 1.761 1.8 1.761zm-1-3.8c0-.563.441-1 1-1h14.04c.562 0 1 .437 1 1v2.039a.99.99 0 0 1-1 1H5c-.559 0-1-.442-1-1zm0 0"/>
</svg>
